svg/u1f54c.svg

<svg viewBox="0 0 128 128" xmlns="http://www.w3.org/2000/svg">
  <polygon points="10.43,124.25 10.58,79.93 12.29,78.59 115.18,78.59 117.28,79.55 117.2,124.25 " fill="#EEBF72"/>
  <path d="M10.72,75.91c-0.42,0.14-0.16,4.45-0.16,4.45l106.75-0.21c0,0,0.73-4.21,0.17-4.77 C116.92,74.83,10.72,75.91,10.72,75.91z" fill="#CF701D"/>
  <path d="M94.66,21.59l0.06,13.12l-4.95,0.05c0,0-0.07,5.72,0.1,5.78c0.37,0.12,11.56,2.65,11.56,2.65 l14.25-2.52l0.17-5.62L110.82,35l0.11-14.19l-11.3-0.79L94.66,21.59z" fill="#FBDAA6"/>
  <polygon points="93.84,45.2 93.7,124.18 110.73,124.18 111.59,44.2 " fill="#FBDAA6"/>
  <path d="M42.52,66.3c0,0-1.63,3.14-1.63,3.37c0,0.23,0.35,54.7,0.35,54.7h45.39c0,0,1.16-54.46,0.81-54.93 C87.09,68.98,42.52,66.3,42.52,66.3z" fill="#FBDAA6"/>
  <path d="M17.23,21.36c0,0.4-0.03,13.46-0.03,13.46l-4.88-0.01c0,0-0.23,5.62,0.12,5.93 c0.52,0.46,14.94,2.69,14.94,2.69s10.57-2.14,10.81-2.71c0.15-0.36,0.19-5.54,0.19-5.54l-5.2-0.05l0.08-14.33l-9.66-0.89 L17.23,21.36z" fill="#FBDAA6"/>
  <polygon points="16.67,45.76 17.27,124.25 34.25,124.25 34.2,45.09 " fill="#FBDAA6"/>
  <polygon points="12.41,40.71 38.2,40.71 34.2,46.2 16.67,46.31 " fill="#EEBF72"/>
  <polygon points="16.82,67.46 34.13,67.33 34.2,72.95 16.88,73.01 " fill="#EEBF72"/>
  <polygon points="23.24,118.77 28.15,118.77 28.15,82.91 25.96,80.01 23.57,82.85 " fill="#EEBF72"/>
  <polygon points="100.02,119.78 104.61,119.72 104.86,82.64 102.47,79.41 100.15,82.64 " fill="#EEBF72"/>
  <polygon points="93.95,66.1 93.88,71.85 111.13,71.85 111.2,66.04 " fill="#EEBF72"/>
  <polygon points="93.82,46.46 111.58,46.4 115.68,40.67 89.81,40.52 " fill="#EEBF72"/>
  <polygon points="40.97,85.06 40.91,79.61 87.44,79.52 87.37,85.1 " fill="#CF701D"/>
  <polygon points="97.79,24.07 101.58,24.08 101.55,34.1 97.76,34.13 " fill="#B7885A"/>
  <polygon points="104.38,24.1 108,24.1 107.97,34.13 104.32,34.16 " fill="#B7885A"/>
  <polygon points="20.04,24.06 23.72,24.06 23.69,34.08 20.01,34.12 " fill="#B7885A"/>
  <polygon points="26.62,24.09 30.25,24.09 30.22,34.12 26.56,34.15 " fill="#B7885A"/>
  <path d="M47.79,70.38c-4.96,0-4.55,5.77-4.55,5.77l8.82-0.06C52.05,76.09,52.51,70.38,47.79,70.38z" fill="#B7885A"/>
  <path d="M54.13,76.15c0,0-0.52-5.65,4.55-5.77c4.73-0.11,4.27,5.71,4.27,5.71L54.13,76.15z" fill="#B7885A"/>
  <path d="M85.73,75.91c0,0,0.98-5.59-4.44-5.7c-5.2-0.11-4.6,5.76-4.6,5.76L85.73,75.91z" fill="#B7885A"/>
  <path d="M74.37,75.97c0,0,0.98-5.82-4.44-5.7c-5.14,0.12-4.6,5.76-4.6,5.76L74.37,75.97z" fill="#B7885A"/>
  <path d="M79.05,124.37l0.13-14.7l2.52-3.08c0,0-2.63-1.2-2.64-4.15c-0.02-3.98,4.1-6.61,4.1-6.61 s4,2.35,3.93,6.75c-0.04,2.6-2.65,4.06-2.65,4.06l2.49,3.2c0,0-0.22,14.49-0.3,14.55C86.54,124.44,79.05,124.37,79.05,124.37z" fill="#B7885A"/>
  <path d="M41.07,124.37c-0.1-0.03,0.05-14.93,0.05-14.93l2.6-2.79c0,0-2.5-1.7-2.58-4.01 c-0.2-5.4,3.99-6.82,3.99-6.82s4.18,2.3,3.83,6.75c-0.21,2.72-2.55,4.05-2.55,4.05l2.52,3L48.8,124.4 C48.8,124.4,41.17,124.4,41.07,124.37z" fill="#B7885A"/>
  <path d="M64.32,88.06c0,0-11.29,3.52-10.84,12.74c0.2,4.04,3.13,5.81,3.13,5.81l-2.9,3.05l-0.11,14.7 l20.73,0.02l0.06-14.76l-2.79-2.96c0,0,2.79-1.73,2.91-6.15C74.72,91.75,64.32,88.06,64.32,88.06z" fill="#966737"/>
  <path d="M40.89,69.68l46.55-0.23c0,0,2.48-2.96,2-10.18c-0.45-6.73-4.79-10.84-4.79-10.84l-28.64,0.49 l-13-0.11c0,0-3.61,3.97-3.93,10.66C38.81,65.43,40.89,69.68,40.89,69.68z" fill="#FFA828"/>
  <path d="M64.11,34.26c0,0-8.47,3.1-15.1,8.49c-5.04,4.11-6.46,6.67-6.46,6.67s-1.73,17.83,21.61,18.29 c20.63,0.41,20.51-19.28,20.51-19.28s-4.23-5.03-8.71-7.78C70.01,37.01,64.11,34.26,64.11,34.26z" fill="#FCC11A"/>
  <path d="M67.26,33.53c0-1.73-1.4-3.13-3.12-3.13c-1.72,0-3.17,1.07-3.28,2.79c-0.15,2.18,1.21,3.55,3.21,3.54 C65.79,36.74,67.26,35.26,67.26,33.53z" fill="#FFA828"/>
  <path d="M54.43,15.99l-2.38,3.36c0,0-0.74,12.86,12.25,12.86c11.72,0,12.57-11.27,11.78-11.78 c-0.39-0.26-5.49,5.84-5.72,5.9c-0.23,0.06-9.18-0.63-9.41-0.92C60.73,25.11,54.43,15.99,54.43,15.99z" fill="#FFA828"/>
  <path d="M64.19,12.65c-0.37,0.32,0.9,4.12,0.9,4.12s-1.99,2.97-1.7,3.44s3.23,0.23,3.23,0.23 s2.37,2.42,3,2.31c0.63-0.12,1.33-3.17,1.33-3.17s3.41-0.92,3.46-1.5c0.06-0.58-2.99-2.64-2.99-2.64s0.22-3.42-0.07-3.65 C71.06,11.55,68,13.51,68,13.51S64.65,12.24,64.19,12.65z" fill="#FCC11A"/>
  <path d="M67.19,8.66c0.04,0.46-6.06,1.56-7.16,6.93c-1.12,5.49,1.96,9.18,7.68,9.52 c5.71,0.35,6.75-5.48,8.37-4.73c0.54,0.25-1.67,9.18-11.72,8.95c-8.9-0.2-12.2-6.74-12.29-9.35c-0.23-6.35,3.58-10.22,7.45-11.66 C63.03,7.01,67.07,7.28,67.19,8.66z" fill="#FCC11A"/>
  <path d="M94.38,21.82c0.41,0.25,16.54,0.25,16.78,0.06c0.24-0.19,0.49-2.67,0.52-3.75 c0.1-3.39-0.74-4.95-0.74-4.95s-15.83-0.33-16.21,0.06c-0.39,0.39-0.76,2.17-0.81,4.45C93.88,20.19,94.14,21.67,94.38,21.82z" fill="#FFA828"/>
  <path d="M17.09,21.47c0.32,0.27,16.16,0.25,16.31,0.06c0.15-0.19,0.72-2.63,0.66-4.23 c-0.08-2.23-0.49-3.08-0.79-3.66c-0.62-1.21-15.36-1.62-15.8-0.79s-1.03,2.59-1.05,4.7C16.4,19.17,16.75,21.18,17.09,21.47z" fill="#FFA828"/>
  <path d="M27.95,4.12c0,1.45-1.35,2.81-2.81,2.81c-1.46,0-2.62-1.32-2.62-2.76s1.26-2.81,2.72-2.81 C26.7,1.36,27.95,2.67,27.95,4.12z" fill="#FCC11A"/>
  <path d="M105.6,4.11c0,1.46-1.19,2.6-2.68,2.6s-2.66-1.18-2.66-2.64s1.18-2.64,2.66-2.64 S105.6,2.65,105.6,4.11z" fill="#FCC11A"/>
  <path d="M94.47,13.69c0,0,1.04,4.73,8.06,4.98c7.56,0.27,8.48-5.39,8.48-5.39s-1.09-2.23-2.73-4.02 c-1.74-1.91-4.4-3.67-5.43-3.67c-0.95,0-3.69,1.5-5.49,3.48C95.38,11.24,94.47,13.47,94.47,13.69z" fill="#FCC11A"/>
  <path d="M25.23,5.36c-0.45,0-3.67,2.27-4.99,3.75c-1.92,2.17-2.77,3.73-2.77,3.73s0.51,5.63,7.53,5.78 c7.55,0.16,8.28-4.97,8.28-4.97s-1.24-2.39-3.23-4.56C27.95,6.8,25.23,5.36,25.23,5.36z" fill="#FCC11A"/>
</svg>

<svg viewBox="0 0 128 128" xmlns="http://www.w3.org/2000/svg">
  <defs/>
  <path d="M10.43,124.25 L10.58,79.93 L12.29,78.59 L115.18,78.59 L117.28,79.55 L117.2,124.25 Z" fill="#EEBF72"/>
  <path d="M10.72,75.91 C10.3,76.05 10.56,80.36 10.56,80.36 L117.31,80.15 C117.31,80.15 118.04,75.94 117.48,75.38 C116.92,74.83 10.72,75.91 10.72,75.91 Z" fill="#CF701D"/>
  <path d="M94.66,21.59 L94.72,34.71 L89.77,34.76 C89.77,34.76 89.7,40.48 89.87,40.54 C90.24,40.66 101.43,43.19 101.43,43.19 L115.68,40.67 L115.85,35.05 L110.82,35 L110.93,20.81 L99.63,20.02 L94.66,21.59 Z" fill="#FBDAA6"/>
  <path d="M93.84,45.2 L93.7,124.18 L110.73,124.18 L111.59,44.2 Z" fill="#FBDAA6"/>
  <path d="M42.52,66.3 C42.52,66.3 40.89,69.44 40.89,69.67 C40.89,69.9 41.24,124.37 41.24,124.37 L86.63,124.37 C86.63,124.37 87.79,69.91 87.44,69.44 C87.09,68.98 42.52,66.3 42.52,66.3 Z" fill="#FBDAA6"/>
  <path d="M17.23,21.36 C17.23,21.76 17.2,34.82 17.2,34.82 L12.32,34.81 C12.32,34.81 12.09,40.43 12.44,40.74 C12.96,41.2 27.38,43.43 27.38,43.43 C27.38,43.43 37.95,41.29 38.19,40.72 C38.34,40.36 38.38,35.18 38.38,35.18 L33.18,35.13 L33.26,20.8 L23.6,19.91 L17.23,21.36 Z" fill="#FBDAA6"/>
  <path d="M16.67,45.76 L17.27,124.25 L34.25,124.25 L34.2,45.09 Z" fill="#FBDAA6"/>
  <path d="M12.41,40.71 L38.2,40.71 L34.2,46.2 L16.67,46.31 Z" fill="#EEBF72"/>
  <path d="M16.82,67.46 L34.13,67.33 L34.2,72.95 L16.88,73.01 Z" fill="#EEBF72"/>
  <path d="M23.24,118.77 L28.15,118.77 L28.15,82.91 L25.96,80.01 L23.57,82.85 Z" fill="#EEBF72"/>
  <path d="M100.02,119.78 L104.61,119.72 L104.86,82.64 L102.47,79.41 L100.15,82.64 Z" fill="#EEBF72"/>
  <path d="M93.95,66.1 L93.88,71.85 L111.13,71.85 L111.2,66.04 Z" fill="#EEBF72"/>
  <path d="M93.82,46.46 L111.58,46.4 L115.68,40.67 L89.81,40.52 Z" fill="#EEBF72"/>
  <path d="M40.97,85.06 L40.91,79.61 L87.44,79.52 L87.37,85.1 Z" fill="#CF701D"/>
  <path d="M97.79,24.07 L101.58,24.08 L101.55,34.1 L97.76,34.13 Z" fill="#B7885A"/>
  <path d="M104.38,24.1 L108,24.1 L107.97,34.13 L104.32,34.16 Z" fill="#B7885A"/>
  <path d="M20.04,24.06 L23.72,24.06 L23.69,34.08 L20.01,34.12 Z" fill="#B7885A"/>
  <path d="M26.62,24.09 L30.25,24.09 L30.22,34.12 L26.56,34.15 Z" fill="#B7885A"/>
  <path d="M47.79,70.38 C42.83,70.38 43.24,76.15 43.24,76.15 L52.06,76.09 C52.05,76.09 52.51,70.38 47.79,70.38 Z" fill="#B7885A"/>
  <path d="M54.13,76.15 C54.13,76.15 53.61,70.5 58.68,70.38 C63.41,70.27 62.95,76.09 62.95,76.09 L54.13,76.15 Z" fill="#B7885A"/>
  <path d="M85.73,75.91 C85.73,75.91 86.71,70.32 81.29,70.21 C76.09,70.1 76.69,75.97 76.69,75.97 L85.73,75.91 Z" fill="#B7885A"/>
  <path d="M74.37,75.97 C74.37,75.97 75.35,70.15 69.93,70.27 C64.79,70.39 65.33,76.03 65.33,76.03 L74.37,75.97 Z" fill="#B7885A"/>
  <path d="M79.05,124.37 L79.18,109.67 L81.7,106.59 C81.7,106.59 79.07,105.39 79.06,102.44 C79.04,98.46 83.16,95.83 83.16,95.83 C83.16,95.83 87.16,98.18 87.09,102.58 C87.05,105.18 84.44,106.64 84.44,106.64 L86.93,109.84 C86.93,109.84 86.71,124.33 86.63,124.39 C86.54,124.44 79.05,124.37 79.05,124.37 Z" fill="#B7885A"/>
  <path d="M41.07,124.37 C40.97,124.34 41.12,109.44 41.12,109.44 L43.72,106.65 C43.72,106.65 41.22,104.95 41.14,102.64 C40.94,97.24 45.13,95.82 45.13,95.82 C45.13,95.82 49.31,98.12 48.96,102.57 C48.75,105.29 46.41,106.62 46.41,106.62 L48.93,109.62 L48.8,124.4 C48.8,124.4 41.17,124.4 41.07,124.37 Z" fill="#B7885A"/>
  <path d="M64.32,88.06 C64.32,88.06 53.03,91.58 53.48,100.8 C53.68,104.84 56.61,106.61 56.61,106.61 L53.71,109.66 L53.6,124.36 L74.33,124.38 L74.39,109.62 L71.6,106.66 C71.6,106.66 74.39,104.93 74.51,100.51 C74.72,91.75 64.32,88.06 64.32,88.06 Z" fill="#966737"/>
  <path d="M40.89,69.68 L87.44,69.45 C87.44,69.45 89.92,66.49 89.44,59.27 C88.99,52.54 84.65,48.43 84.65,48.43 L56.01,48.92 L43.01,48.81 C43.01,48.81 39.4,52.78 39.08,59.47 C38.81,65.43 40.89,69.68 40.89,69.68 Z" fill="#FFA828"/>
  <path d="M64.11,34.26 C64.11,34.26 55.64,37.36 49.01,42.75 C43.97,46.86 42.55,49.42 42.55,49.42 C42.55,49.42 40.82,67.25 64.16,67.71 C84.79,68.12 84.67,48.43 84.67,48.43 C84.67,48.43 80.44,43.4 75.96,40.65 C70.01,37.01 64.11,34.26 64.11,34.26 Z" fill="#FCC11A"/>
  <path d="M67.26,33.53 C67.26,31.8 65.86,30.4 64.14,30.4 C62.42,30.4 60.97,31.47 60.86,33.19 C60.71,35.37 62.07,36.74 64.07,36.73 C65.79,36.74 67.26,35.26 67.26,33.53 Z" fill="#FFA828"/>
  <path d="M54.43,15.99 L52.05,19.35 C52.05,19.35 51.31,32.21 64.3,32.21 C76.02,32.21 76.87,20.94 76.08,20.43 C75.69,20.17 70.59,26.27 70.36,26.33 C70.13,26.39 61.18,25.7 60.95,25.41 C60.73,25.11 54.43,15.99 54.43,15.99 Z" fill="#FFA828"/>
  <path d="M64.19,12.65 C63.82,12.97 65.09,16.77 65.09,16.77 C65.09,16.77 63.1,19.74 63.39,20.21 C63.68,20.68 66.62,20.44 66.62,20.44 C66.62,20.44 68.99,22.86 69.62,22.75 C70.25,22.63 70.95,19.58 70.95,19.58 C70.95,19.58 74.36,18.66 74.41,18.08 C74.47,17.5 71.42,15.44 71.42,15.44 C71.42,15.44 71.64,12.02 71.35,11.79 C71.06,11.55 68,13.51 68,13.51 C68,13.51 64.65,12.24 64.19,12.65 Z" fill="#FCC11A"/>
  <path d="M67.19,8.66 C67.23,9.12 61.13,10.22 60.03,15.59 C58.91,21.08 61.99,24.77 67.71,25.11 C73.42,25.46 74.46,19.63 76.08,20.38 C76.62,20.63 74.41,29.56 64.36,29.33 C55.46,29.13 52.16,22.59 52.07,19.98 C51.84,13.63 55.65,9.76 59.52,8.32 C63.03,7.01 67.07,7.28 67.19,8.66 Z" fill="#FCC11A"/>
  <path d="M94.38,21.82 C94.79,22.07 110.92,22.07 111.16,21.88 C111.4,21.69 111.65,19.21 111.68,18.13 C111.78,14.74 110.94,13.18 110.94,13.18 C110.94,13.18 95.11,12.85 94.73,13.24 C94.34,13.63 93.97,15.41 93.92,17.69 C93.88,20.19 94.14,21.67 94.38,21.82 Z" fill="#FFA828"/>
  <path d="M17.09,21.47 C17.41,21.74 33.25,21.72 33.4,21.53 C33.55,21.34 34.12,18.9 34.06,17.3 C33.98,15.07 33.57,14.22 33.27,13.64 C32.65,12.43 17.91,12.02 17.47,12.85 C17.03,13.68 16.44,15.44 16.42,17.55 C16.4,19.17 16.75,21.18 17.09,21.47 Z" fill="#FFA828"/>
  <path d="M27.95,4.12 C27.95,5.57 26.6,6.93 25.14,6.93 C23.68,6.93 22.52,5.61 22.52,4.17 C22.52,2.73 23.78,1.36 25.24,1.36 C26.7,1.36 27.95,2.67 27.95,4.12 Z" fill="#FCC11A"/>
  <path d="M105.6,4.11 C105.6,5.57 104.41,6.71 102.92,6.71 C101.43,6.71 100.26,5.53 100.26,4.07 C100.26,2.61 101.44,1.43 102.92,1.43 C104.4,1.43 105.6,2.65 105.6,4.11 Z" fill="#FCC11A"/>
  <path d="M94.47,13.69 C94.47,13.69 95.51,18.42 102.53,18.67 C110.09,18.94 111.01,13.28 111.01,13.28 C111.01,13.28 109.92,11.05 108.28,9.26 C106.54,7.35 103.88,5.59 102.85,5.59 C101.9,5.59 99.16,7.09 97.36,9.07 C95.38,11.24 94.47,13.47 94.47,13.69 Z" fill="#FCC11A"/>
  <path d="M25.23,5.36 C24.78,5.36 21.56,7.63 20.24,9.11 C18.32,11.28 17.47,12.84 17.47,12.84 C17.47,12.84 17.98,18.47 25,18.62 C32.55,18.78 33.28,13.65 33.28,13.65 C33.28,13.65 32.04,11.26 30.05,9.09 C27.95,6.8 25.23,5.36 25.23,5.36 Z" fill="#FCC11A"/>
</svg>
